X: 41872
T: Vivienne's
R: jig
M: 6/8
K: Dmajor
|:f3 fed|cAd cAG|FDG GAd|cBc Ade|
eff fed|cAd cAG|FDG GAd|cBc d2e:|
|:fdB B3|fBg fed|ecA Ace|a3 edc|
B2c dcB|cec ABc|B2F FAc|B3 B3:|

